COLOR/mimes 16/16/text-x-cmake.svg

<svg height="16" viewBox="0 0 4.233125 4.233125" width="16" xmlns="http://www.w3.org/2000/svg" xmlns:xlink="http://www.w3.org/1999/xlink"><linearGradient id="a" gradientUnits="userSpaceOnUse" x1="328" x2="328" y1="237" y2="251"><stop offset="0" stop-color="#fff"/><stop offset=".125" stop-color="#fff" stop-opacity=".098039"/><stop offset=".92500001" stop-color="#fff" stop-opacity=".098039"/><stop offset="1" stop-color="#fff" stop-opacity=".498039"/></linearGradient><clipPath id="b"><path d="m325.09646 237c-2.80769 0-3.10979.28839-3.09603 3.10176v3.89824 3.89824c-.0138 2.81337.28834 3.10176 3.09603 3.10176h5.8075c2.8077 0 3.09604-.28835 3.09604-3.10176v-3.89824-3.89824c0-2.8134-.28835-3.10176-3.09604-3.10176z"/></clipPath><linearGradient id="c" gradientUnits="userSpaceOnUse" x1="90.020653" x2="213.97398" xlink:href="#d" y1="156" y2="156"/><linearGradient id="d"><stop offset="0" stop-color="#62237c"/><stop offset="1" stop-color="#7839b7"/></linearGradient><linearGradient id="e" gradientUnits="userSpaceOnUse" x1="88.86042" x2="212.81375" xlink:href="#d" y1="96.82814" y2="218.65256"/><linearGradient id="f" gradientTransform="matrix(0 -.00953618 .00953591 0 -.942985 4.473643)" gradientUnits="userSpaceOnUse" x1="459.03448" x2="35.310345" y1="419.23337" y2="207.36522"><stop offset="0" stop-color="#f2f2f2"/><stop offset="1" stop-color="#f9f9f9"/></linearGradient><path d="m1.3483185.26457024c-.1902366 0-.3444308.003678-.48573252.0273883-.1413044.023732-.2826405.0730955-.3906566.18085764-.1080135.10775949-.1578347.24955066-.1813736.39116985-.0235467.14162177-.0267718.29644577-.0258485.48728567v.7652908 1.0314115c-.0007937.1900038.00238.3445631.025848.4857352.023547.1416192.073357.2834104.1813736.3911699.1080161.1077621.2493522.1571389.3906566.1808576.14130172.023732.29549592.027388.48573252.027388h1.5367831c.1902367 0 .3440949-.00362.4852167-.027388.141125-.023758.282477-.073529.3901386-.1813736.1076616-.1078441.1571653-.249413.1808576-.3906539.0236949-.1412435.0273883-.2951308.0273883-.4857352v-1.0314115-.7668412c0-.1906044-.0037-.3444918-.027388-.48573527-.0236794-.14124086-.0731963-.28280979-.1808579-.39065394s-.2490136-.1576257-.3901381-.18137353c-.1411218-.02375048-.29498-.02738832-.4852167-.02738832z" opacity=".1"/><path d="m1.3485196.26457024c-.74283142 0-.82275812.0762994-.81911762.82063356v1.0313587 1.0313586c-.00365.7443342.076286.8206336.81911762.8206336h1.5364921c.7428341 0 .8191203-.076289.8191203-.8206336v-1.0313586-1.0313587c0-.74434206-.076289-.82063356-.8191203-.82063356z" fill="none" opacity=".2" stroke="#000" stroke-width=".529141"/><path d="m1.3485196.26457024c-.74283142 0-.82275812.0762994-.81911762.82063356v1.0313587 1.0313586c-.00365.7443342.076286.8206336.81911762.8206336h1.5364921c.7428341 0 .8191203-.076289.8191203-.8206336v-1.0313586-1.0313587c0-.74434206-.076289-.82063356-.8191203-.82063356z" fill="url(#f)"/><g enable-background="new" fill="url(#c)" transform="matrix(.01700369 0 0 .01700369 -.467806 -.536014)"><path d="m152.49434 94.685592c-38.40827 21.685068-62.255083 62.315528-62.47369 106.448428 40.18306 21.90824 87.36803 21.16104 123.93394.23066.004-.10575.01-.21235.0194-.31766-.0461-43.89606-23.48006-84.43758-61.47915-106.361428zm20.67709 46.988558c5.69442 3.86962 4.84998 13.18614 3.93271 19.56534-1.16719 7.02706-7.90443 18.57968-16.65738 26.11862 1.13225 1.62339 1.79438 3.62252 1.78485 5.7554-5.424 2.74168-10.80612-.3514-17.31536-5.92557-6.5092-5.57423-13.52967-16.74215-15.85947-28.22112-2.06648.21882-4.18249-.24298-5.99742-1.3878.47404-6.43661 7.30553-10.25977 13.35994-12.51667 4.51182-1.68188 14.32334-2.53462 23.58136-1.24206 3.16529.44192 6.26589 1.13463 9.06786 2.1307.8575-1.80038 2.27795-3.31403 4.10291-4.27306z" fill="url(#e)"/><path d="m173.17143 141.67415c5.69442 3.86962 4.84998 13.18614 3.93271 19.56534-1.16719 7.02706-7.90443 18.57968-16.65738 26.11862 1.13225 1.62339 1.79438 3.62252 1.78485 5.7554-5.424 2.74168-10.80612-.3514-17.31536-5.92557-6.5092-5.57423-13.52967-16.74215-15.85947-28.22112-2.06648.21882-4.18249-.24298-5.99742-1.3878.47404-6.43661 7.30553-10.25977 13.35994-12.51667 4.51182-1.68188 14.32334-2.53462 23.58136-1.24206 3.16529.44192 6.26589 1.13463 9.06786 2.1307.8575-1.80038 2.27795-3.31403 4.10291-4.27306z" fill="#fff"/></g><path d="m2.1167101.26457024v3.70398446h.7683915c.7428341 0 .8190304-.076236.8190304-.8205807v-1.0314115-1.0314116c0-.74434208-.076199-.82058066-.8190304-.82058066z" fill="#fff" opacity=".2"/><path d="m.52928818 2.1165625v1.0314115c-.00365.7443342.076199.8205807.81903032.8205807h1.5367831c.7428341 0 .8190304-.076236.8190304-.8205807v-1.0314115z" fill="#fff" opacity=".2"/><path clip-path="url(#b)" d="m325.09646 237c-2.80769 0-3.10979.28839-3.09603 3.10176v3.89824 3.89824c-.0138 2.81337.28834 3.10176 3.09603 3.10176h5.8075c2.8077 0 3.09604-.28835 3.09604-3.10176v-3.89824-3.89824c0-2.8134-.28835-3.10176-3.09604-3.10176z" fill="none" opacity=".4" stroke="url(#a)" stroke-width="2" transform="matrix(.26457031 0 0 .26457031 -84.662352 -62.438594)"/></svg>

<?xml version="1.0" encoding="UTF-8" standalone="no"?>
<svg
   xmlns:dc="http://purl.org/dc/elements/1.1/"
   xmlns:cc="http://creativecommons.org/ns#"
   xmlns:rdf="http://www.w3.org/1999/02/22-rdf-syntax-ns#"
   xmlns:svg="http://www.w3.org/2000/svg"
   xmlns="http://www.w3.org/2000/svg"
   xmlns:xlink="http://www.w3.org/1999/xlink"
   xmlns:sodipodi="http://sodipodi.sourceforge.net/DTD/sodipodi-0.dtd"
   xmlns:inkscape="http://www.inkscape.org/namespaces/inkscape"
   width="16"
   height="16"
   version="1.1"
   viewBox="0 0 4.233125 4.233125"
   id="svg39"
   sodipodi:docname="text-x-meson.svg"
   inkscape:version="0.92.4 (5da689c313, 2019-01-14)">
  <metadata
     id="metadata43">
    <rdf:RDF>
      <cc:Work
         rdf:about="">
        <dc:format>image/svg+xml</dc:format>
        <dc:type
           rdf:resource="http://purl.org/dc/dcmitype/StillImage" />
        <dc:title />
      </cc:Work>
    </rdf:RDF>
  </metadata>
  <sodipodi:namedview
     pagecolor="#ffffff"
     bordercolor="#666666"
     borderopacity="1"
     objecttolerance="10"
     gridtolerance="10"
     guidetolerance="10"
     inkscape:pageopacity="0"
     inkscape:pageshadow="2"
     inkscape:window-width="1920"
     inkscape:window-height="1016"
     id="namedview41"
     showgrid="false"
     inkscape:zoom="52.437459"
     inkscape:cx="3.7952741"
     inkscape:cy="8.0000063"
     inkscape:window-x="0"
     inkscape:window-y="27"
     inkscape:window-maximized="1"
     inkscape:current-layer="svg39" />
  <defs
     id="defs17">
    <linearGradient
       id="linearGradient4226"
       x1="529.65503"
       x2="-35.310001"
       y1="401.58401"
       y2="119.093"
       gradientTransform="matrix(0,-0.11988932,0.11988589,0,21.313161,289.96538)"
       gradientUnits="userSpaceOnUse">
      <stop
         style="stop-color:#f2f2f2"
         offset="0"
         id="stop2" />
      <stop
         style="stop-color:#f9f9f9"
         offset="1"
         id="stop4" />
    </linearGradient>
    <linearGradient
       id="linearGradient4358"
       x1="88"
       x2="488"
       y1="88"
       y2="488"
       gradientUnits="userSpaceOnUse"
       gradientTransform="matrix(0.13229167,0,0,0.13229167,8.2179587,236.95825)">
      <stop
         style="stop-color:#000000;stop-opacity:.58823532"
         offset="0"
         id="stop7" />
      <stop
         style="stop-color:#000000;stop-opacity:0"
         offset=".88"
         id="stop9" />
      <stop
         style="stop-color:#000000"
         offset="1"
         id="stop11" />
    </linearGradient>
    <filter
       id="filter4346"
       width="1.026"
       height="1.022"
       x="-0.0099999998"
       y="-0.0099999998"
       style="color-interpolation-filters:sRGB">
      <feGaussianBlur
         stdDeviation="2.12"
         id="feGaussianBlur14" />
    </filter>
    <clipPath
       clipPathUnits="userSpaceOnUse"
       id="clipPath983">
      <path
         sodipodi:nodetypes="scccssscsss"
         inkscape:connector-curvature="0"
         id="path985"
         d="m 325.09646,237 c -2.80769,0 -3.10979,0.28839 -3.09603,3.10176 V 244 v 3.89824 c -0.0138,2.81337 0.28834,3.10176 3.09603,3.10176 h 5.8075 C 333.71166,251 334,250.71165 334,247.89824 V 244 240.10176 C 334,237.28836 333.71165,237 330.90396,237 Z"
         style="color:#000000;display:inline;overflow:visible;visibility:visible;opacity:1;fill:#46a926;fill-opacity:1;fill-rule:nonzero;stroke:none;stroke-width:2;stroke-miterlimit:4;stroke-dasharray:none;stroke-opacity:1;marker:none;enable-background:accumulate" />
    </clipPath>
    <linearGradient
       inkscape:collect="always"
       xlink:href="#linearGradient927"
       id="linearGradient993"
       x1="328"
       y1="237"
       x2="328"
       y2="251"
       gradientUnits="userSpaceOnUse" />
    <linearGradient
       inkscape:collect="always"
       id="linearGradient927">
      <stop
         style="stop-color:#ffffff;stop-opacity:1;"
         offset="0"
         id="stop923" />
      <stop
         id="stop933"
         offset="0.125"
         style="stop-color:#ffffff;stop-opacity:0.09803922" />
      <stop
         id="stop931"
         offset="0.92500001"
         style="stop-color:#ffffff;stop-opacity:0.09803922" />
      <stop
         style="stop-color:#ffffff;stop-opacity:0.49803922"
         offset="1"
         id="stop925" />
    </linearGradient>
    <clipPath
       clipPathUnits="userSpaceOnUse"
       id="clipPath983-3">
      <path
         sodipodi:nodetypes="scccssscsss"
         inkscape:connector-curvature="0"
         id="path985-6"
         d="m 325.09646,237 c -2.80769,0 -3.10979,0.28839 -3.09603,3.10176 V 244 v 3.89824 c -0.0138,2.81337 0.28834,3.10176 3.09603,3.10176 h 5.8075 C 333.71166,251 334,250.71165 334,247.89824 V 244 240.10176 C 334,237.28836 333.71165,237 330.90396,237 Z"
         style="color:#000000;display:inline;overflow:visible;visibility:visible;opacity:1;fill:#46a926;fill-opacity:1;fill-rule:nonzero;stroke:none;stroke-width:2;stroke-miterlimit:4;stroke-dasharray:none;stroke-opacity:1;marker:none;enable-background:accumulate" />
    </clipPath>
    <linearGradient
       inkscape:collect="always"
       xlink:href="#linearGradient921"
       id="linearGradient973"
       x1="90.020653"
       y1="156"
       x2="213.97398"
       y2="156"
       gradientUnits="userSpaceOnUse" />
    <linearGradient
       id="linearGradient921"
       inkscape:collect="always">
      <stop
         id="stop917"
         offset="0"
         style="stop-color:#62237c;stop-opacity:1" />
      <stop
         id="stop919"
         offset="1"
         style="stop-color:#7839b7;stop-opacity:1" />
    </linearGradient>
    <linearGradient
       inkscape:collect="always"
       xlink:href="#linearGradient921"
       id="linearGradient990"
       gradientUnits="userSpaceOnUse"
       x1="88.86042"
       y1="96.82814"
       x2="212.81375"
       y2="218.65256" />
    <linearGradient
       inkscape:collect="always"
       xlink:href="#linearGradient4338"
       id="linearGradient920"
       gradientUnits="userSpaceOnUse"
       gradientTransform="matrix(0,-0.00953618,0.00953591,0,-0.94298468,4.4736432)"
       x1="459.03448"
       y1="419.23337"
       x2="35.310345"
       y2="207.36522" />
    <linearGradient
       inkscape:collect="always"
       id="linearGradient4338">
      <stop
         style="stop-color:#f2f2f2;stop-opacity:1"
         offset="0"
         id="stop4340" />
      <stop
         style="stop-color:#f9f9f9;stop-opacity:1"
         offset="1"
         id="stop4342" />
    </linearGradient>
  </defs>
  <path
     style="color:#000000;font-style:normal;font-variant:normal;font-weight:normal;font-stretch:normal;font-size:medium;line-height:normal;font-family:sans-serif;font-variant-ligatures:normal;font-variant-position:normal;font-variant-caps:normal;font-variant-numeric:normal;font-variant-alternates:normal;font-feature-settings:normal;text-indent:0;text-align:start;text-decoration:none;text-decoration-line:none;text-decoration-style:solid;text-decoration-color:#000000;letter-spacing:normal;word-spacing:normal;text-transform:none;writing-mode:lr-tb;direction:ltr;text-orientation:mixed;dominant-baseline:auto;baseline-shift:baseline;text-anchor:start;white-space:normal;shape-padding:0;clip-rule:nonzero;display:inline;overflow:visible;visibility:visible;opacity:0.1;isolation:auto;mix-blend-mode:normal;color-interpolation:sRGB;color-interpolation-filters:linearRGB;solid-color:#000000;solid-opacity:1;vector-effect:none;fill:#000000;fill-opacity:1;fill-rule:nonzero;stroke:none;stroke-width:0.52914065;stroke-linecap:butt;stroke-linejoin:miter;stroke-miterlimit:4;stroke-dasharray:none;stroke-dashoffset:0;stroke-opacity:1;marker:none;color-rendering:auto;image-rendering:auto;shape-rendering:auto;text-rendering:auto;enable-background:accumulate"
     d="m 1.3483185,0.26457024 c -0.1902366,0 -0.3444308,0.003678 -0.48573252,0.0273883 -0.1413044,0.023732 -0.2826405,0.0730955 -0.3906566,0.18085764 C 0.36391588,0.58057567 0.31409468,0.72236684 0.29055578,0.86398603 0.26700908,1.0056078 0.26378398,1.1604318 0.26470728,1.3512717 V 2.1165625 3.147974 c -7.937e-4,0.1900038 0.00238,0.3445631 0.025848,0.4857352 0.023547,0.1416192 0.073357,0.2834104 0.1813736,0.3911699 0.1080161,0.1077621 0.2493522,0.1571389 0.3906566,0.1808576 0.14130172,0.023732 0.29549592,0.027388 0.48573252,0.027388 h 1.5367831 c 0.1902367,0 0.3440949,-0.00362 0.4852167,-0.027388 0.141125,-0.023758 0.282477,-0.073529 0.3901386,-0.1813736 C 3.868118,3.916519 3.9176217,3.7749501 3.941314,3.6337092 3.9650089,3.4924657 3.9687023,3.3385784 3.9687023,3.147974 V 2.1165625 1.3497213 c 0,-0.1906044 -0.0037,-0.3444918 -0.027388,-0.48573527 C 3.9176349,0.72274517 3.868118,0.58117624 3.7604564,0.47333209 3.6527948,0.36548794 3.5114428,0.31570639 3.3703183,0.29195856 3.2291965,0.26820808 3.0753383,0.26457024 2.8851016,0.26457024 Z"
     id="path997"
     inkscape:connector-curvature="0"
     sodipodi:nodetypes="scscccccccsscscscscscss" />
  <path
     sodipodi:nodetypes="scccssscsss"
     inkscape:connector-curvature="0"
     id="path928"
     d="m 1.3485196,0.26457024 c -0.74283142,0 -0.82275812,0.0762994 -0.81911762,0.82063356 v 1.0313587 1.0313586 c -0.00365,0.7443342 0.076286,0.8206336 0.81911762,0.8206336 h 1.5364921 c 0.7428341,0 0.8191203,-0.076289 0.8191203,-0.8206336 V 2.1165625 1.0852038 c 0,-0.74434206 -0.076289,-0.82063356 -0.8191203,-0.82063356 z"
     style="color:#000000;display:inline;overflow:visible;visibility:visible;opacity:0.2;fill:none;fill-opacity:1;fill-rule:nonzero;stroke:#000000;stroke-width:0.52914065;stroke-miterlimit:4;stroke-dasharray:none;stroke-opacity:1;marker:none;enable-background:accumulate" />
  <path
     style="color:#000000;display:inline;overflow:visible;visibility:visible;fill:url(#linearGradient920);fill-opacity:1;fill-rule:nonzero;stroke:none;stroke-width:0.26457033;marker:none;enable-background:accumulate"
     d="m 1.3485196,0.26457024 c -0.74283142,0 -0.82275812,0.0762994 -0.81911762,0.82063356 v 1.0313587 1.0313586 c -0.00365,0.7443342 0.076286,0.8206336 0.81911762,0.8206336 h 1.5364921 c 0.7428341,0 0.8191203,-0.076289 0.8191203,-0.8206336 V 2.1165625 1.0852038 c 0,-0.74434206 -0.076289,-0.82063356 -0.8191203,-0.82063356 z"
     id="path918"
     inkscape:connector-curvature="0"
     sodipodi:nodetypes="scccssscsss" />
  <g
     style="display:inline;fill:url(#linearGradient973);fill-opacity:1;enable-background:new"
     id="g966-3-5-6-1"
     transform="matrix(0.01700369,0,0,0.01700369,-0.46780586,-0.53601423)">
    <path
       sodipodi:nodetypes="cccccccccccccssccc"
       id="path817-6-2-9-7-9-93-9-8-1-6-3-2-2"
       d="M 152.49434,94.685592 C 114.08607,116.37066 90.239257,157.00112 90.02065,201.13402 c 40.18306,21.90824 87.36803,21.16104 123.93394,0.23066 0.004,-0.10575 0.01,-0.21235 0.0194,-0.31766 -0.0461,-43.89606 -23.48006,-84.43758 -61.47915,-106.361428 z m 20.67709,46.988558 c 5.69442,3.86962 4.84998,13.18614 3.93271,19.56534 -1.16719,7.02706 -7.90443,18.57968 -16.65738,26.11862 1.13225,1.62339 1.79438,3.62252 1.78485,5.7554 -5.424,2.74168 -10.80612,-0.3514 -17.31536,-5.92557 -6.5092,-5.57423 -13.52967,-16.74215 -15.85947,-28.22112 -2.06648,0.21882 -4.18249,-0.24298 -5.99742,-1.3878 0.47404,-6.43661 7.30553,-10.25977 13.35994,-12.51667 4.51182,-1.68188 14.32334,-2.53462 23.58136,-1.24206 3.16529,0.44192 6.26589,1.13463 9.06786,2.1307 0.8575,-1.80038 2.27795,-3.31403 4.10291,-4.27306 z"
       style="display:inline;fill:url(#linearGradient990);fill-opacity:1;stroke:none;stroke-width:3.32821822;stroke-miterlimit:4;stroke-dasharray:none;stroke-opacity:1;enable-background:new"
       inkscape:connector-curvature="0" />
    <path
       sodipodi:nodetypes="cccccccssccc"
       id="path817-6-2-9-7-9-93-9-8-1-3-7-5-9-7"
       d="m 173.17143,141.67415 c 5.69442,3.86962 4.84998,13.18614 3.93271,19.56534 -1.16719,7.02706 -7.90443,18.57968 -16.65738,26.11862 1.13225,1.62339 1.79438,3.62252 1.78485,5.7554 -5.424,2.74168 -10.80612,-0.3514 -17.31536,-5.92557 -6.5092,-5.57423 -13.52967,-16.74215 -15.85947,-28.22112 -2.06648,0.21882 -4.18249,-0.24298 -5.99742,-1.3878 0.47404,-6.43661 7.30553,-10.25977 13.35994,-12.51667 4.51182,-1.68188 14.32334,-2.53462 23.58136,-1.24206 3.16529,0.44192 6.26589,1.13463 9.06786,2.1307 0.8575,-1.80038 2.27795,-3.31403 4.10291,-4.27306 z"
       style="display:inline;fill:#ffffff;fill-opacity:1;stroke:none;stroke-width:3.32821822;stroke-miterlimit:4;stroke-dasharray:none;stroke-opacity:1;enable-background:new"
       inkscape:connector-curvature="0" />
  </g>
  <path
     style="color:#000000;display:inline;overflow:visible;visibility:visible;opacity:0.2;fill:#ffffff;fill-opacity:1;fill-rule:nonzero;stroke:none;stroke-width:0.26457033;marker:none;enable-background:accumulate"
     d="M 2.1167101,0.26457024 V 3.9685547 h 0.7683915 c 0.7428341,0 0.8190304,-0.076236 0.8190304,-0.8205807 V 2.1165625 1.0851509 c 0,-0.74434208 -0.076199,-0.82058066 -0.8190304,-0.82058066 z"
     id="path1009"
     inkscape:connector-curvature="0" />
  <path
     style="color:#000000;display:inline;overflow:visible;visibility:visible;opacity:0.2;fill:#ffffff;fill-opacity:1;fill-rule:nonzero;stroke:none;stroke-width:0.26457033;marker:none;enable-background:accumulate"
     d="M 0.52928818,2.1165625 V 3.147974 c -0.00365,0.7443342 0.076199,0.8205807 0.81903032,0.8205807 h 1.5367831 c 0.7428341,0 0.8190304,-0.076236 0.8190304,-0.8205807 V 2.1165625 Z"
     id="path1016"
     inkscape:connector-curvature="0" />
  <path
     transform="matrix(0.26457031,0,0,0.26457031,-84.662352,-62.438594)"
     style="color:#000000;display:inline;overflow:visible;visibility:visible;opacity:0.4;fill:none;fill-opacity:1;fill-rule:nonzero;stroke:url(#linearGradient993);stroke-width:2;stroke-miterlimit:4;stroke-dasharray:none;stroke-opacity:1;marker:none;enable-background:accumulate"
     d="m 325.09646,237 c -2.80769,0 -3.10979,0.28839 -3.09603,3.10176 V 244 v 3.89824 c -0.0138,2.81337 0.28834,3.10176 3.09603,3.10176 h 5.8075 C 333.71166,251 334,250.71165 334,247.89824 V 244 240.10176 C 334,237.28836 333.71165,237 330.90396,237 Z"
     id="path937"
     inkscape:connector-curvature="0"
     sodipodi:nodetypes="scccssscsss"
     clip-path="url(#clipPath983-3)" />
</svg>
